tipitek/img/saving-acc-img.svg

<svg width="424" height="423" viewBox="0 0 424 423" fill="none" xmlns="http://www.w3.org/2000/svg">
<g clip-path="url(#clip0_932_5765)">
<g opacity="0.2">
<path d="M183.769 74.1146L208.828 59.1859L225.889 68.2498L256.28 84.778L295.734 97.0408L327.724 102.906V133.296V196.21L323.459 241.529L311.196 275.119L282.405 316.706L250.415 338.566L208.828 354.561L176.838 343.898L138.983 324.17L111.791 290.581L94.7299 253.792L86.1992 196.21V121.567L94.7299 102.906L138.983 92.2423L183.769 74.1146Z" fill="#F8F8F9"/>
<path fill-rule="evenodd" clip-rule="evenodd" d="M97.4022 113.354C136.946 107.836 174.699 93.328 207.762 70.9443C240.824 93.3293 278.577 107.839 318.121 113.358V217.377C315.431 247.501 303.321 276.013 283.512 298.867C263.702 321.721 237.199 337.756 207.762 344.696C178.326 337.754 151.823 321.719 132.013 298.865C112.204 276.012 100.094 247.501 97.4022 217.377V113.354ZM205.617 364.47C206.324 364.609 207.042 364.683 207.762 364.691C208.482 364.684 209.2 364.611 209.907 364.471C243.933 356.885 274.666 338.672 297.659 312.467C320.652 286.262 334.714 253.423 337.812 218.698C337.838 218.39 337.852 218.126 337.852 217.817V104.59C337.852 102.155 336.947 99.8067 335.314 98.0003C333.681 96.194 331.436 95.0584 329.013 94.8136C287.352 90.4671 247.544 75.3331 213.518 50.9051C211.84 49.7025 209.828 49.0557 207.764 49.0557C205.7 49.0557 203.688 49.7025 202.01 50.9051C167.985 75.3325 128.179 90.4664 86.5195 94.8136C84.0955 95.0573 81.8483 96.1923 80.2136 97.9987C78.5789 99.8051 77.6731 102.154 77.6719 104.59V217.817C77.6713 218.111 77.6861 218.405 77.7163 218.698C80.8164 253.421 94.8788 286.258 117.871 312.463C140.862 338.667 171.592 356.881 205.617 364.47Z" fill="#9DB3D6"/>
</g>
<path fill-rule="evenodd" clip-rule="evenodd" d="M210.149 236.69L269.622 176.385L249.58 156.063L190.107 216.368L166.725 192.658L146.684 212.981L190.107 257.013L190.107 257.013L210.149 236.69Z" fill="#FCBC58"/>
</g>
<path d="M337.214 165.61C337.214 165.61 379.565 73.4274 335.615 61.0417C291.666 48.656 219.697 92.7045 165.412 142.548C100.083 202.531 32.7653 319.543 62.7307 345.114C92.6961 370.684 155.309 345.114 155.309 345.114" stroke="#DBE1EA" stroke-width="2.4" stroke-linecap="round"/>
<path d="M331.506 251.91C331.506 251.91 379.565 337.986 335.615 350.372C291.666 362.757 219.697 318.709 165.412 268.866C100.083 208.883 32.7653 91.8704 62.7307 66.2999C92.6961 40.7293 165.412 72.5171 165.412 72.5171" stroke="#DBE1EA" stroke-width="2.4" stroke-linecap="round"/>
<path d="M337.498 154.023C337.498 154.023 430.456 182.926 408.138 222.761C385.819 262.596 303.782 282.339 230.152 285.48C141.543 289.26 11.2022 254.12 14.3099 214.851C17.4175 175.581 76.9987 150.028 76.9987 150.028" stroke="#DBE1EA" stroke-width="2.4" stroke-linecap="round"/>
<ellipse cx="61.7566" cy="113.932" rx="13.7566" ry="13.7319" fill="#30CBFF"/>
<circle cx="351" cy="299.2" r="6" fill="#30CBFF"/>
<ellipse cx="389.64" cy="238.819" rx="11.6402" ry="11.6193" fill="#E60015"/>
<circle cx="39.5" cy="172.7" r="6.5" fill="#E60015"/>
<ellipse cx="59.6402" cy="301.819" rx="11.6402" ry="11.6193" fill="#FFC250"/>
<circle cx="353.5" cy="110.7" r="6.5" fill="#FFC250"/>
<defs>
<clipPath id="clip0_932_5765">
<rect width="315.635" height="315.635" fill="white" transform="translate(49.9453 49.0557)"/>
</clipPath>
</defs>
</svg>

<svg width="424" height="423" fill="none" xmlns="http://www.w3.org/2000/svg"><g clip-path="url(#clip0_932_5765)"><g opacity=".2"><path d="M183.769 74.115l25.059-14.93 17.061 9.065 30.391 16.528 39.454 12.263 31.99 5.865v93.304l-4.265 45.319-12.263 33.59-28.791 41.587-31.99 21.86-41.587 15.995-31.99-10.663-37.855-19.728-27.192-33.589-17.061-36.789-8.53-57.582v-74.643l8.53-18.661 44.253-10.664 44.786-18.127z" fill="#F8F8F9"/><path fill-rule="evenodd" clip-rule="evenodd" d="M97.402 113.354a261.263 261.263 0 0 0 110.36-42.41 261.256 261.256 0 0 0 110.359 42.414v104.019a143.97 143.97 0 0 1-110.359 127.319 143.982 143.982 0 0 1-110.36-127.319V113.354zM205.617 364.47c.707.139 1.425.213 2.145.221.72-.007 1.438-.08 2.145-.22a164.312 164.312 0 0 0 127.905-145.773c.026-.308.04-.572.04-.881V104.59a9.827 9.827 0 0 0-8.839-9.776 240.904 240.904 0 0 1-115.495-43.909 9.877 9.877 0 0 0-11.508 0A240.903 240.903 0 0 1 86.52 94.814a9.83 9.83 0 0 0-8.848 9.776v113.227c0 .294.014.588.044.881A164.327 164.327 0 0 0 205.617 364.47z" fill="#9DB3D6"/></g><path fill-rule="evenodd" clip-rule="evenodd" d="M210.149 236.69l59.473-60.305-20.042-20.322-59.473 60.305-23.382-23.71-20.041 20.323 43.423 44.032 20.042-20.323z" fill="#FCBC58"/></g><path d="M337.214 165.61s42.351-92.183-1.599-104.568c-43.949-12.386-115.918 31.662-170.203 81.506-65.329 59.983-132.647 176.995-102.681 202.566 29.965 25.57 92.578 0 92.578 0" stroke="#DBE1EA" stroke-width="2.4" stroke-linecap="round"/><path d="M331.506 251.91s48.059 86.076 4.109 98.462c-43.949 12.385-115.918-31.663-170.203-81.506C100.083 208.883 32.765 91.87 62.731 66.3c29.965-25.57 102.681 6.217 102.681 6.217" stroke="#DBE1EA" stroke-width="2.4" stroke-linecap="round"/><path d="M337.498 154.023s92.958 28.903 70.64 68.738c-22.319 39.835-104.356 59.578-177.986 62.719-88.609 3.78-218.95-31.36-215.842-70.629 3.107-39.27 62.689-64.823 62.689-64.823" stroke="#DBE1EA" stroke-width="2.4" stroke-linecap="round"/><ellipse cx="61.757" cy="113.932" rx="13.757" ry="13.732" fill="#30CBFF"/><circle cx="351" cy="299.2" r="6" fill="#30CBFF"/><ellipse cx="389.64" cy="238.819" rx="11.64" ry="11.619" fill="#E60015"/><circle cx="39.5" cy="172.7" r="6.5" fill="#E60015"/><ellipse cx="59.64" cy="301.819" rx="11.64" ry="11.619" fill="#FFC250"/><circle cx="353.5" cy="110.7" r="6.5" fill="#FFC250"/><defs><clipPath id="clip0_932_5765"><path fill="#fff" transform="translate(49.945 49.056)" d="M0 0h315.635v315.635H0z"/></clipPath></defs></svg>
